src/assets/banner.svg

<svg width="999" height="192" fill="none" xmlns="http://www.w3.org/2000/svg"><path d="M966.919 51.3609c3.381-5.5093 7.764-9.829 13.148-12.9593 5.509-3.1303 11.769-4.6954 18.781-4.6954v27.609h-6.949c-8.264 0-14.524 1.9407-18.782 5.8223-4.132 3.8815-6.198 10.6429-6.198 20.2842v51.8373h-26.294V35.2087h26.294v16.1522ZM812.209 86.8582c0-10.5177 2.066-19.8459 6.198-27.9846 4.257-8.1387 9.954-14.3993 17.091-18.7817 7.262-4.3823 15.338-6.5735 24.228-6.5735 7.763 0 14.525 1.5651 20.284 4.6954 5.885 3.1303 10.581 7.0744 14.087 11.8324V35.2087h26.482V139.259h-26.482v-15.213c-3.381 4.883-8.076 8.952-14.087 12.208-5.884 3.13-12.708 4.695-20.472 4.695-8.764 0-16.778-2.253-24.04-6.761-7.137-4.508-12.834-10.831-17.091-18.97-4.132-8.263-6.198-17.7169-6.198-28.3598Zm81.888.3756c0-6.3857-1.252-11.8324-3.757-16.34-2.504-4.6328-5.885-8.1387-10.142-10.5177-4.257-2.5042-8.827-3.7563-13.71-3.7563-4.884 0-9.391 1.1895-13.523 3.5685-4.132 2.379-7.513 5.8849-10.142 10.5177-2.504 4.5076-3.757 9.8917-3.757 16.1522 0 6.2606 1.253 11.7698 3.757 16.5278 2.629 4.633 6.01 8.201 10.142 10.706 4.257 2.504 8.765 3.756 13.523 3.756 4.883 0 9.453-1.19 13.71-3.569 4.257-2.504 7.638-6.01 10.142-10.517 2.505-4.6331 3.757-10.1424 3.757-16.5282ZM774.965 51.3609c3.381-5.5093 7.763-9.829 13.147-12.9593 5.51-3.1303 11.77-4.6954 18.782-4.6954v27.609h-6.949c-8.264 0-14.525 1.9407-18.782 5.8223-4.132 3.8815-6.198 10.6429-6.198 20.2842v51.8373h-26.294V35.2087h26.294v16.1522ZM653.31 50.4219c3.381-5.0085 8.014-9.0778 13.899-12.2081 6.01-3.1303 12.834-4.6954 20.472-4.6954 8.89 0 16.903 2.1912 24.04 6.5736 7.262 4.3823 12.959 10.6429 17.091 18.7816 4.258 8.0135 6.386 17.3417 6.386 27.9846 0 10.643-2.128 20.0968-6.386 28.3598-4.132 8.139-9.829 14.462-17.091 18.97-7.137 4.508-15.15 6.761-24.04 6.761-7.763 0-14.587-1.502-20.472-4.507-5.76-3.131-10.393-7.137-13.899-12.021v14.838h-26.294V.274902h26.294V50.4219Zm55.03 36.4363c0-6.2605-1.314-11.6446-3.944-16.1522-2.504-4.6328-5.885-8.1387-10.142-10.5177-4.132-2.379-8.639-3.5685-13.523-3.5685-4.758 0-9.265 1.2521-13.522 3.7563-4.132 2.379-7.513 5.8849-10.142 10.5177-2.505 4.6328-3.757 10.0795-3.757 16.3401 0 6.2605 1.252 11.7072 3.757 16.3401 2.629 4.633 6.01 8.201 10.142 10.705 4.257 2.379 8.764 3.569 13.522 3.569 4.884 0 9.391-1.252 13.523-3.756 4.257-2.505 7.638-6.073 10.142-10.706 2.63-4.6327 3.944-10.142 3.944-16.5278ZM565.064 33.7062c12.772 0 23.039 3.9441 30.802 11.8324 7.889 7.7631 11.833 18.6564 11.833 32.6801v61.0403h-26.295V81.7872c0-8.1387-2.065-14.3367-6.197-18.5938-4.132-4.3824-9.767-6.5736-16.904-6.5736-7.137 0-12.834 2.1912-17.091 6.5736-4.132 4.2571-6.198 10.4551-6.198 18.5938v57.4718H508.72V81.7872c0-8.1387-2.066-14.3367-6.198-18.5938-4.132-4.3824-9.767-6.5736-16.904-6.5736-7.262 0-13.022 2.1912-17.279 6.5736-4.132 4.2571-6.198 10.4551-6.198 18.5938v57.4718h-26.294V35.2087h26.294v12.5837c3.381-4.3824 7.701-7.8257 12.959-10.3299 5.385-2.5042 11.269-3.7563 17.655-3.7563 8.139 0 15.401 1.7529 21.787 5.2588 6.386 3.3807 11.331 8.264 14.837 14.6497 3.381-6.0101 8.264-10.8307 14.65-14.4619 6.511-3.6311 13.523-5.4466 21.035-5.4466ZM422.289 84.9801c0 3.7563-.251 7.137-.751 10.142h-76.066c.626 7.5129 3.255 13.3979 7.888 17.6549 4.633 4.257 10.33 6.386 17.092 6.386 9.766 0 16.715-4.195 20.847-12.584h28.36c-3.005 10.017-8.764 18.281-17.279 24.792-8.514 6.385-18.969 9.578-31.365 9.578-10.017 0-19.032-2.191-27.046-6.573-7.888-4.508-14.086-10.831-18.593-18.97-4.383-8.138-6.574-17.5292-6.574-28.1722 0-10.7681 2.191-20.2215 6.574-28.3602 4.382-8.1387 10.517-14.3993 18.406-18.7817 7.888-4.3823 16.966-6.5735 27.233-6.5735 9.892 0 18.719 2.1286 26.482 6.3857 7.888 4.2572 13.961 10.3299 18.218 18.2182 4.383 7.7631 6.574 16.7157 6.574 26.8578Zm-27.233-7.5127c-.126-6.7614-2.567-12.1455-7.325-16.1522-4.758-4.132-10.581-6.1979-17.467-6.1979-6.511 0-12.021 2.0033-16.528 6.0101-4.382 3.8815-7.075 9.3282-8.076 16.34h49.396ZM271.287 118.411h43.198v20.848h-69.492V8.16315h26.294V118.411Z" fill="#003459"/><path d="M177.991 140.574c-10.643 0-20.221-2.192-28.736-6.574-8.514-4.382-15.213-10.643-20.096-18.782-4.758-8.263-7.137-17.9047-7.137-28.9233 0-11.0185 2.379-20.5972 7.137-28.7359 4.883-8.2639 11.582-14.587 20.096-18.9694 8.515-4.3824 18.093-6.5736 28.736-6.5736s20.222 2.1912 28.736 6.5736c8.514 4.3824 15.151 10.7055 19.909 18.9694 4.883 8.1387 7.324 17.7174 7.324 28.7359 0 11.0186-2.441 20.6603-7.324 28.9233-4.758 8.139-11.395 14.4-19.909 18.782s-18.093 6.574-28.736 6.574Zm0-36.061c3.882 0 7.137-1.503 9.767-4.508 2.629-3.1299 3.944-7.7001 3.944-13.7103 0-6.0101-1.315-10.5177-3.944-13.5227-2.63-3.1303-5.885-4.6954-9.767-4.6954-3.881 0-7.137 1.5651-9.766 4.6954-2.63 3.005-3.944 7.5126-3.944 13.5227 0 6.0102 1.252 10.5804 3.756 13.7103 2.629 3.005 5.947 4.508 9.954 4.508ZM43.7612 32.0158c6.8866 0 12.8341 1.4399 17.8426 4.3198 5.0084 2.7546 8.8273 6.5736 11.4568 11.4568V33.3305h41.5074V137.381c0 9.891-1.816 18.907-5.447 27.045-3.631 8.139-9.5157 14.65-17.6544 19.533-8.0135 4.883-18.3434 7.325-30.9897 7.325-17.0287 0-30.5515-4.007-40.5684-12.02-9.8916-7.888-15.52612-18.657-16.90344-32.305H43.949c1.1269 5.51 5.6345 8.264 13.5228 8.264 4.8832 0 8.7022-1.252 11.4568-3.756 2.7546-2.504 4.132-7.2 4.132-14.086v-12.584c-2.6295 4.883-6.4484 8.765-11.4568 11.645-5.0085 2.754-10.956 4.132-17.8426 4.132-8.2639 0-15.714-2.129-22.3501-6.386-6.6362-4.382-11.89507-10.643-15.77661-18.782C1.87816 107.142 0 97.4385 0 86.2947 0 75.151 1.87816 65.5097 5.63449 57.371c3.88154-8.2639 9.14041-14.5244 15.77661-18.7816 6.6361-4.3824 14.0862-6.5736 22.3501-6.5736Zm29.2994 54.2789c0-5.6345-1.44-10.0168-4.3198-13.1471-2.8799-3.1303-6.5736-4.6954-11.0812-4.6954-4.5076 0-8.2013 1.5651-11.0811 4.6954-2.8799 3.1303-4.3198 7.5126-4.3198 13.1471s1.4399 10.0169 4.3198 13.1472c2.8798 3.1301 6.5735 4.6951 11.0811 4.6951 4.5076 0 8.2013-1.565 11.0812-4.6951 2.8798-3.1303 4.3198-7.5127 4.3198-13.1472Z" fill="#00A6CB"/></svg>

<svg width="999" height="192" viewBox="0 0 999 192" fill="none" xmlns="http://www.w3.org/2000/svg">
<path d="M966.919 51.3609C970.3 45.8516 974.683 41.5319 980.067 38.4016C985.576 35.2713 991.836 33.7062 998.848 33.7062V61.3152H991.899C983.635 61.3152 977.375 63.2559 973.117 67.1375C968.985 71.019 966.919 77.7804 966.919 87.4217V139.259H940.625V35.2087H966.919V51.3609Z" fill="#003459"/>
<path d="M812.209 86.8582C812.209 76.3405 814.275 67.0123 818.407 58.8736C822.664 50.7349 828.361 44.4743 835.498 40.0919C842.76 35.7096 850.836 33.5184 859.726 33.5184C867.489 33.5184 874.251 35.0835 880.01 38.2138C885.895 41.3441 890.591 45.2882 894.097 50.0462V35.2087H920.579V139.259H894.097V124.046C890.716 128.929 886.021 132.998 880.01 136.254C874.126 139.384 867.302 140.949 859.538 140.949C850.774 140.949 842.76 138.696 835.498 134.188C828.361 129.68 822.664 123.357 818.407 115.218C814.275 106.955 812.209 97.5011 812.209 86.8582ZM894.097 87.2338C894.097 80.8481 892.845 75.4014 890.34 70.8938C887.836 66.261 884.455 62.7551 880.198 60.3761C875.941 57.8719 871.371 56.6198 866.488 56.6198C861.604 56.6198 857.097 57.8093 852.965 60.1883C848.833 62.5673 845.452 66.0732 842.823 70.706C840.319 75.2136 839.066 80.5977 839.066 86.8582C839.066 93.1188 840.319 98.628 842.823 103.386C845.452 108.019 848.833 111.587 852.965 114.092C857.222 116.596 861.73 117.848 866.488 117.848C871.371 117.848 875.941 116.658 880.198 114.279C884.455 111.775 887.836 108.269 890.34 103.762C892.845 99.1289 894.097 93.6196 894.097 87.2338Z" fill="#003459"/>
<path d="M774.965 51.3609C778.346 45.8516 782.728 41.5319 788.112 38.4016C793.622 35.2713 799.882 33.7062 806.894 33.7062V61.3152H799.945C791.681 61.3152 785.42 63.2559 781.163 67.1375C777.031 71.019 774.965 77.7804 774.965 87.4217V139.259H748.671V35.2087H774.965V51.3609Z" fill="#003459"/>
<path d="M653.31 50.4219C656.691 45.4134 661.324 41.3441 667.209 38.2138C673.219 35.0835 680.043 33.5184 687.681 33.5184C696.571 33.5184 704.584 35.7096 711.721 40.092C718.983 44.4743 724.68 50.7349 728.812 58.8736C733.07 66.8871 735.198 76.2153 735.198 86.8582C735.198 97.5012 733.07 106.955 728.812 115.218C724.68 123.357 718.983 129.68 711.721 134.188C704.584 138.696 696.571 140.949 687.681 140.949C679.918 140.949 673.094 139.447 667.209 136.442C661.449 133.311 656.816 129.305 653.31 124.421V139.259H627.016V0.274902H653.31V50.4219ZM708.34 86.8582C708.34 80.5977 707.026 75.2136 704.396 70.706C701.892 66.0732 698.511 62.5673 694.254 60.1883C690.122 57.8093 685.615 56.6198 680.731 56.6198C675.973 56.6198 671.466 57.8719 667.209 60.3761C663.077 62.7551 659.696 66.261 657.067 70.8938C654.562 75.5266 653.31 80.9733 653.31 87.2339C653.31 93.4944 654.562 98.9411 657.067 103.574C659.696 108.207 663.077 111.775 667.209 114.279C671.466 116.658 675.973 117.848 680.731 117.848C685.615 117.848 690.122 116.596 694.254 114.092C698.511 111.587 701.892 108.019 704.396 103.386C707.026 98.7533 708.34 93.244 708.34 86.8582Z" fill="#003459"/>
<path d="M565.064 33.7062C577.836 33.7062 588.103 37.6503 595.866 45.5386C603.755 53.3017 607.699 64.195 607.699 78.2187V139.259H581.404V81.7872C581.404 73.6485 579.339 67.4505 575.207 63.1934C571.075 58.811 565.44 56.6198 558.303 56.6198C551.166 56.6198 545.469 58.811 541.212 63.1934C537.08 67.4505 535.014 73.6485 535.014 81.7872V139.259H508.72V81.7872C508.72 73.6485 506.654 67.4505 502.522 63.1934C498.39 58.811 492.755 56.6198 485.618 56.6198C478.356 56.6198 472.596 58.811 468.339 63.1934C464.207 67.4505 462.141 73.6485 462.141 81.7872V139.259H435.847V35.2087H462.141V47.7924C465.522 43.41 469.842 39.9667 475.1 37.4625C480.485 34.9583 486.369 33.7062 492.755 33.7062C500.894 33.7062 508.156 35.4591 514.542 38.965C520.928 42.3457 525.873 47.229 529.379 53.6147C532.76 47.6046 537.643 42.784 544.029 39.1528C550.54 35.5217 557.552 33.7062 565.064 33.7062Z" fill="#003459"/>
<path d="M422.289 84.9801C422.289 88.7364 422.038 92.1171 421.538 95.1221H345.472C346.098 102.635 348.727 108.52 353.36 112.777C357.993 117.034 363.69 119.163 370.452 119.163C380.218 119.163 387.167 114.968 391.299 106.579H419.659C416.654 116.596 410.895 124.86 402.38 131.371C393.866 137.756 383.411 140.949 371.015 140.949C360.998 140.949 351.983 138.758 343.969 134.376C336.081 129.868 329.883 123.545 325.376 115.406C320.993 107.268 318.802 97.8768 318.802 87.2338C318.802 76.4657 320.993 67.0123 325.376 58.8736C329.758 50.7349 335.893 44.4743 343.782 40.0919C351.67 35.7096 360.748 33.5184 371.015 33.5184C380.907 33.5184 389.734 35.647 397.497 39.9041C405.385 44.1613 411.458 50.234 415.715 58.1223C420.098 65.8854 422.289 74.838 422.289 84.9801ZM395.056 77.4674C394.93 70.706 392.489 65.3219 387.731 61.3152C382.973 57.1832 377.15 55.1173 370.264 55.1173C363.753 55.1173 358.243 57.1206 353.736 61.1274C349.354 65.0089 346.661 70.4556 345.66 77.4674H395.056Z" fill="#003459"/>
<path d="M271.287 118.411H314.485V139.259H244.993V8.16315H271.287V118.411Z" fill="#003459"/>
<path d="M177.991 140.574C167.348 140.574 157.77 138.382 149.255 134C140.741 129.618 134.042 123.357 129.159 115.218C124.401 106.955 122.022 97.3133 122.022 86.2947C122.022 75.2762 124.401 65.6975 129.159 57.5588C134.042 49.2949 140.741 42.9718 149.255 38.5894C157.77 34.207 167.348 32.0158 177.991 32.0158C188.634 32.0158 198.213 34.207 206.727 38.5894C215.241 42.9718 221.878 49.2949 226.636 57.5588C231.519 65.6975 233.96 75.2762 233.96 86.2947C233.96 97.3133 231.519 106.955 226.636 115.218C221.878 123.357 215.241 129.618 206.727 134C198.213 138.382 188.634 140.574 177.991 140.574ZM177.991 104.513C181.873 104.513 185.128 103.01 187.758 100.005C190.387 96.8751 191.702 92.3049 191.702 86.2947C191.702 80.2846 190.387 75.777 187.758 72.772C185.128 69.6417 181.873 68.0766 177.991 68.0766C174.11 68.0766 170.854 69.6417 168.225 72.772C165.595 75.777 164.281 80.2846 164.281 86.2947C164.281 92.3049 165.533 96.8751 168.037 100.005C170.666 103.01 173.984 104.513 177.991 104.513Z" fill="#00A6CB"/>
<path d="M43.7612 32.0158C50.6478 32.0158 56.5953 33.4557 61.6038 36.3356C66.6122 39.0902 70.4311 42.9092 73.0606 47.7924V33.3305H114.568V137.381C114.568 147.272 112.752 156.288 109.121 164.426C105.49 172.565 99.6053 179.076 91.4666 183.959C83.4531 188.842 73.1232 191.284 60.4769 191.284C43.4482 191.284 29.9254 187.277 19.9085 179.264C10.0169 171.376 4.38238 160.607 3.00506 146.959H43.949C45.0759 152.469 49.5835 155.223 57.4718 155.223C62.355 155.223 66.174 153.971 68.9286 151.467C71.6832 148.963 73.0606 144.267 73.0606 137.381V124.797C70.4311 129.68 66.6122 133.562 61.6038 136.442C56.5953 139.196 50.6478 140.574 43.7612 140.574C35.4973 140.574 28.0472 138.445 21.4111 134.188C14.7749 129.806 9.51603 123.545 5.63449 115.406C1.87816 107.142 0 97.4385 0 86.2947C0 75.151 1.87816 65.5097 5.63449 57.371C9.51603 49.1071 14.7749 42.8466 21.4111 38.5894C28.0472 34.207 35.4973 32.0158 43.7612 32.0158ZM73.0606 86.2947C73.0606 80.6602 71.6206 76.2779 68.7408 73.1476C65.8609 70.0173 62.1672 68.4522 57.6596 68.4522C53.152 68.4522 49.4583 70.0173 46.5785 73.1476C43.6986 76.2779 42.2587 80.6602 42.2587 86.2947C42.2587 91.9292 43.6986 96.3116 46.5785 99.4419C49.4583 102.572 53.152 104.137 57.6596 104.137C62.1672 104.137 65.8609 102.572 68.7408 99.4419C71.6206 96.3116 73.0606 91.9292 73.0606 86.2947Z" fill="#00A6CB"/>
</svg>
